frontend/public/svg/interface/minimize.svg

<svg width="163" height="158" viewBox="0 0 163 158" fill="none" xmlns="http://www.w3.org/2000/svg">
<g clip-path="url(#clip0)">
<path d="M159.647 47.5043C158.363 46.9179 156.983 46.5705 155.575 46.4783C144.206 46.0686 132.017 45.6792 117.212 45.2553C115.028 45.1903 112.842 45.2092 110.531 45.2254C109.609 45.2319 108.665 45.2394 107.689 45.2413C107.652 44.9526 107.613 44.671 107.574 44.3962C107.443 43.4742 107.324 42.6027 107.293 41.7503C107.071 35.8118 106.857 29.8707 106.65 23.9274C106.455 18.4249 106.256 12.9226 106.055 7.4202C106.025 6.15739 105.873 4.90017 105.6 3.6669C105.104 1.56543 103.786 0.470412 101.925 0.554288C99.9986 0.65117 98.7417 1.86941 98.4769 3.89675C98.4359 4.20885 98.3923 4.5214 98.3467 4.83523C98.1639 5.9744 98.0494 7.12338 98.0032 8.27613C97.7729 20.0982 97.5094 34.0971 97.3058 48.2898C97.2622 51.3653 97.8529 53.4098 99.1658 54.7271C100.518 56.0828 102.574 56.6775 105.848 56.6332C115.105 56.5273 125.596 56.4073 135.874 56.486C139.382 56.5133 142.953 56.6722 146.405 56.8256C149.073 56.944 151.828 57.0668 154.544 57.1286C154.629 57.1286 154.714 57.1286 154.8 57.1286C156.336 57.1105 157.86 56.8516 159.317 56.3622C160.203 56.0291 160.972 55.4421 161.526 54.6738C162.08 53.9055 162.395 52.9907 162.43 52.0443C162.466 51.098 162.22 50.1621 161.725 49.3546C161.23 48.5472 160.507 47.9045 159.648 47.5062L159.647 47.5043Z" fill="black"/>
<path d="M19.1813 107.624C25.6528 107.395 32.2298 107.115 38.5901 106.843C42.3514 106.683 46.1128 106.526 49.8741 106.372C50.4493 106.367 51.0243 106.395 51.5963 106.457L52.0907 106.5V107.015C52.0907 107.806 52.0907 108.546 52.0907 109.285C52.1063 111.904 52.1237 114.523 52.1428 117.141C52.1818 122.751 52.213 128.361 52.2365 133.969C52.2436 136.617 52.2267 139.265 52.2091 141.912C52.1929 144.377 52.1759 146.842 52.1805 149.308C52.1414 150.581 52.2541 151.853 52.5162 153.099C53.1896 155.838 55.5448 157.87 58.0249 157.87H58.1335C60.6982 157.809 62.8829 155.736 63.4418 152.831C63.6127 151.792 63.6527 150.735 63.5608 149.686C63.35 146.373 63.1297 143.061 62.8998 139.749C62.49 133.738 62.0677 127.521 61.745 121.405C61.5863 118.389 61.5453 115.309 61.5062 112.331C61.4711 109.623 61.434 106.822 61.3111 104.066C61.1861 101.332 60.5954 99.6308 59.4028 98.5508C58.2103 97.4708 56.4335 97.0488 53.6587 97.2062C40.6661 97.9214 27.6758 98.6561 14.6876 99.4097L10.3344 99.6594C10.1262 99.6711 9.90827 99.6718 9.68902 99.6731C8.90185 99.6048 8.11105 99.7543 7.4028 100.104C6.79775 100.485 5.33781 101.524 4.84465 102.953C4.29685 104.542 5.11726 106.128 6.93634 106.994C7.7389 107.337 8.60407 107.509 9.47692 107.5C10.1145 107.517 10.7519 107.536 11.389 107.556C13.9388 107.635 16.5802 107.718 19.1813 107.624Z" fill="black"/>
<path d="M9.84439 58.7076H10.1918C14.5447 58.7076 18.8984 58.6959 23.2526 58.6721C33.6499 58.6292 44.3972 58.5838 54.9643 58.7978C55.1022 58.8004 55.2378 58.8016 55.3709 58.8016C60.4599 58.8016 62.6765 56.7631 62.9959 51.8449C63.4247 45.2239 63.6465 38.4824 63.8606 31.9634L63.897 30.8517C64.1787 22.2845 64.3466 15.1944 64.4266 8.53893C64.4843 6.79001 64.1739 5.04831 63.5158 3.42679C63.2665 2.8063 62.8572 2.26322 62.3297 1.85208C61.802 1.44093 61.1749 1.17664 60.5119 1.0863C59.8269 1.02947 59.1388 1.15206 58.5156 1.44189C57.8924 1.73172 57.3554 2.17878 56.9577 2.73913C56.0728 3.98519 55.4503 5.3976 55.1276 6.89118C53.8348 12.3458 53.9318 17.9255 54.0215 23.3209C54.0534 25.1707 54.0867 27.0836 54.0632 28.9575C53.9982 33.7873 53.814 38.5332 53.6162 43.558C53.5377 45.5645 53.461 47.5905 53.3859 49.6365L52.7574 49.7127C52.3123 49.7776 51.8641 49.8198 51.4146 49.8384C45.6841 49.9424 39.9529 50.0433 34.2211 50.1413C27.9376 50.2509 21.6545 50.3621 15.3719 50.4753L13.7454 50.5026C11.0961 50.5448 8.35581 50.5889 5.66293 50.7807C2.14968 51.0298 1.40148 52.948 1.39042 54.513C1.38196 55.7556 1.90246 57.9236 5.48923 58.4841C6.93305 58.6701 8.38906 58.7447 9.84439 58.7076Z" fill="black"/>
<path d="M154.405 93.955C153.928 93.9134 153.448 93.9082 152.969 93.94C150.983 94.046 148.995 94.1455 147.007 94.2378C142.4 94.4595 137.638 94.693 132.957 95.0447C126.646 95.5239 120.244 96.0929 114.049 96.6442C110.488 96.9609 106.926 97.273 103.364 97.5792C99.1406 97.9368 97.421 99.7015 97.2337 103.873C97.1745 105.193 97.1445 106.533 97.1159 107.829C97.0905 108.957 97.0651 110.085 97.0209 111.21C96.8732 114.993 96.7229 118.776 96.5694 122.558C96.289 129.541 95.9988 136.763 95.7431 143.867C95.6761 145.685 95.7685 147.505 96.019 149.306C96.4458 152.34 97.9155 154.183 99.8797 154.183C99.9499 154.183 100.02 154.183 100.091 154.175C102.973 153.986 103.247 150.299 103.338 149.087C103.673 144.598 103.997 140.107 104.308 135.616C104.655 130.684 105.011 125.753 105.376 120.823C105.621 117.572 105.921 114.359 106.238 110.957C106.368 109.579 106.498 108.181 106.628 106.754C108.447 106.585 110.237 106.411 111.995 106.234C116.262 105.813 120.292 105.414 124.376 105.152C130.787 104.742 137.313 104.427 143.625 104.122C146.424 103.987 149.221 103.849 152.018 103.709C152.295 103.695 152.573 103.689 152.852 103.682C153.606 103.687 154.359 103.622 155.101 103.487C157.857 102.907 159.571 100.858 159.367 98.39C159.166 95.9706 157.219 94.2242 154.405 93.955Z" fill="black"/>
</g>
<defs>
<clipPath id="clip0">
<rect width="162" height="158" fill="white" transform="translate(0.777344)"/>
</clipPath>
</defs>
</svg>

<svg xmlns="http://www.w3.org/2000/svg" width="163" height="158" fill="none" viewBox="0 0 163 158"><g fill="#000" clip-path="url(#a)"><path d="M159.647 47.504a11.6 11.6 0 0 0-4.072-1.026c-11.369-.41-23.558-.799-38.363-1.223-2.184-.065-4.37-.046-6.681-.03-.922.007-1.866.014-2.842.016q-.056-.432-.115-.845c-.131-.922-.25-1.793-.281-2.646q-.333-8.908-.643-17.823-.293-8.253-.595-16.507a19.5 19.5 0 0 0-.455-3.753c-.496-2.102-1.814-3.197-3.675-3.113-1.926.097-3.183 1.315-3.448 3.343a69 69 0 0 1-.13.938 29 29 0 0 0-.344 3.441c-.23 11.822-.494 25.821-.697 40.014-.044 3.075.547 5.12 1.86 6.437 1.352 1.356 3.408 1.95 6.682 1.906 9.257-.106 19.748-.226 30.026-.147 3.508.027 7.079.186 10.531.34 2.668.118 5.423.24 8.139.303h.256a14.7 14.7 0 0 0 4.517-.767 4.81 4.81 0 0 0 3.113-4.318 4.8 4.8 0 0 0-2.782-4.538zm-140.466 60.12a2651 2651 0 0 0 19.41-.781q5.64-.24 11.283-.471.863-.008 1.722.085l.495.043v2.785q.023 3.929.052 7.856.058 8.416.093 16.828c.008 2.648-.01 5.296-.027 7.943-.016 2.465-.033 4.93-.029 7.396a16 16 0 0 0 .336 3.791c.674 2.739 3.029 4.771 5.509 4.771h.108c2.565-.061 4.75-2.134 5.309-5.039.17-1.039.21-2.096.119-3.145q-.316-4.97-.661-9.937c-.41-6.011-.832-12.228-1.155-18.344-.159-3.016-.2-6.096-.239-9.074-.035-2.708-.072-5.509-.195-8.265-.125-2.734-.716-4.435-1.908-5.515-1.193-1.08-2.97-1.502-5.744-1.345q-19.49 1.073-38.971 2.204l-4.354.25c-.208.011-.426.012-.645.013a4.3 4.3 0 0 0-2.286.431c-.605.381-2.065 1.42-2.558 2.849-.548 1.589.272 3.175 2.091 4.041a6.3 6.3 0 0 0 2.54.506q.957.026 1.913.056c2.55.079 5.191.162 7.792.068M9.844 58.708h.348q6.53 0 13.06-.036c10.398-.043 21.145-.088 31.712.126l.407.004c5.089 0 7.305-2.039 7.625-6.957.429-6.621.65-13.363.865-19.882l.036-1.111c.282-8.567.45-15.658.53-22.313a12.5 12.5 0 0 0-.911-5.112 3.79 3.79 0 0 0-3.004-2.34 3.96 3.96 0 0 0-3.554 1.652 11.3 11.3 0 0 0-1.83 4.152c-1.293 5.455-1.196 11.035-1.106 16.43.031 1.85.065 3.763.041 5.636-.065 4.83-.249 9.576-.447 14.601q-.117 3.01-.23 6.078l-.629.077q-.668.098-1.342.125-8.595.156-17.194.303-9.424.165-18.85.334l-1.626.028c-2.649.042-5.39.086-8.082.278-3.513.249-4.262 2.167-4.273 3.732-.008 1.243.512 3.41 4.1 3.971 1.443.186 2.9.26 4.354.224m144.561 35.247a9.4 9.4 0 0 0-1.436-.015 862 862 0 0 1-5.962.298c-4.607.222-9.369.455-14.05.807-6.311.479-12.713 1.048-18.908 1.6q-5.342.475-10.685.934c-4.223.358-5.943 2.123-6.13 6.294-.06 1.32-.09 2.66-.118 3.956-.025 1.128-.05 2.256-.095 3.381q-.221 5.675-.452 11.348c-.28 6.983-.57 14.205-.826 21.309a31 31 0 0 0 .276 5.439c.427 3.034 1.896 4.877 3.86 4.877.07 0 .141 0 .212-.008 2.882-.189 3.156-3.876 3.247-5.088q.503-6.734.97-13.471.52-7.398 1.068-14.793c.245-3.251.545-6.464.862-9.866.13-1.378.26-2.776.39-4.203a700 700 0 0 0 5.367-.52c4.267-.421 8.297-.82 12.381-1.082 6.411-.41 12.937-.725 19.249-1.03q4.198-.203 8.393-.413c.277-.014.555-.02.834-.027.754.005 1.507-.06 2.249-.195 2.756-.58 4.47-2.629 4.266-5.097-.201-2.42-2.148-4.166-4.962-4.435"/></g><defs><clipPath id="a"><path fill="#fff" d="M.777 0h162v158h-162z"/></clipPath></defs></svg>
